packages/ffe-icons/icons/filled/md/looks_6.svg

<svg xmlns="http://www.w3.org/2000/svg" height="24" viewBox="0 -960 960 960" width="24"><path d="M442.308-290.001h75.384q30.308 0 51.307-21 21-20.999 21-51.307v-75.384q0-30.308-21-51.307-20.999-21-51.307-21h-87.693v-87.693q0-5.385 3.462-8.847 3.462-3.462 8.847-3.462H520q12.769 0 21.384-8.615T549.999-640q0-12.769-8.615-21.384T520-669.999h-77.692q-30.308 0-51.307 21-21 20.999-21 51.307v235.384q0 30.308 21 51.307 20.999 21 51.307 21Zm-12.309-160h87.693q5.385 0 8.847 3.462 3.462 3.462 3.462 8.847v75.384q0 5.385-3.462 8.847-3.462 3.462-8.847 3.462h-75.384q-5.385 0-8.847-3.462-3.462-3.462-3.462-8.847v-87.693Zm-217.69 310q-30.308 0-51.308-21t-21-51.308v-535.382q0-30.308 21-51.308t51.308-21h535.382q30.308 0 51.308 21t21 51.308v535.382q0 30.308-21 51.308t-51.308 21H212.309Z"/></svg>

<svg xmlns="http://www.w3.org/2000/svg" height="24" viewBox="0 -960 960 960" width="24"><path d="M442.31-290h75.38Q548-290 569-311q21-21 21-51.31v-75.38Q590-468 569-489q-21-21-51.31-21H430v-87.69q0-5.39 3.46-8.85t8.85-3.46H520q12.77 0 21.38-8.62Q550-627.23 550-640t-8.62-21.38Q532.77-670 520-670h-77.69Q412-670 391-649q-21 21-21 51.31v235.38Q370-332 391-311q21 21 51.31 21ZM430-450h87.69q5.39 0 8.85 3.46t3.46 8.85v75.38q0 5.39-3.46 8.85t-8.85 3.46h-75.38q-5.39 0-8.85-3.46t-3.46-8.85V-450ZM212.31-140Q182-140 161-161q-21-21-21-51.31v-535.38Q140-778 161-799q21-21 51.31-21h535.38Q778-820 799-799q21 21 21 51.31v535.38Q820-182 799-161q-21 21-51.31 21H212.31Z"/></svg>
